icons/eight_fill.svg

<svg width="48" height="48" viewBox="0 0 48 48" fill="none" xmlns="http://www.w3.org/2000/svg">
<path fill-rule="evenodd" clip-rule="evenodd" d="M25.9679 14C28.2048 14 30 15.8009 30 18C30 20.1991 28.2048 22 25.9679 22H22.0321C19.7952 22 18 20.1991 18 18C18 15.8009 19.7952 14 22.0321 14H25.9679ZM16.7194 24C15.053 22.5357 14 20.3929 14 18C14 13.5717 17.6062 10 22.0321 10H25.9679C30.3938 10 34 13.5717 34 18C34 20.3929 32.947 22.5357 31.2806 24C32.947 25.4643 34 27.6071 34 30C34 34.4283 30.3938 38 25.9679 38H22.0321C17.6062 38 14 34.4283 14 30C14 27.6071 15.053 25.4643 16.7194 24ZM22.0321 26H25.9679C28.2048 26 30 27.8009 30 30C30 32.1991 28.2048 34 25.9679 34H22.0321C19.7952 34 18 32.1991 18 30C18 27.8009 19.7952 26 22.0321 26Z" fill="black"/>
</svg>

<svg
  xmlns="http://www.w3.org/2000/svg"
  width="24"
  height="24"
  viewBox="0 0 24 24"
  fill="none"
  stroke="currentColor"
  stroke-width="2"
  stroke-linecap="round"
  stroke-linejoin="round"
>
  <path
    fill-rule="evenodd"
    d="M25.968 14C28.205 14 30 15.8 30 18s-1.795 4-4.032 4h-3.936C19.795 22 18 20.2 18 18s1.795-4 4.032-4zm-9.249 10A7.96 7.96 0 0 1 14 18c0-4.428 3.606-8 8.032-8h3.936C30.394 10 34 13.572 34 18a7.96 7.96 0 0 1-2.72 6A7.96 7.96 0 0 1 34 30c0 4.428-3.606 8-8.032 8h-3.936C17.606 38 14 34.428 14 30a7.96 7.96 0 0 1 2.72-6m5.313 2h3.936C28.205 26 30 27.8 30 30s-1.795 4-4.032 4h-3.936C19.795 34 18 32.2 18 30s1.795-4 4.032-4"
    clip-rule="evenodd"
  />
</svg>
